bridge_ui/src/icons/Github.svg

<svg width="21" height="21" viewBox="0 0 21 21" fill="none" xmlns="http://www.w3.org/2000/svg">
<path d="M19.5915 5.36061C18.6526 3.71151 17.3789 2.40591 15.7703 1.44353C14.1615 0.481094 12.4051 0 10.4999 0C8.59497 0 6.838 0.481241 5.22948 1.44353C3.62072 2.40586 2.34716 3.71151 1.40822 5.36061C0.469422 7.00966 0 8.81044 0 10.7629C0 13.1082 0.667524 15.2172 2.00291 17.0904C3.33815 18.9637 5.06308 20.26 7.17756 20.9794C7.42369 21.0262 7.6059 20.9933 7.72436 20.8814C7.84288 20.7694 7.90207 20.6291 7.90207 20.4611C7.90207 20.4331 7.89972 20.1809 7.89517 19.7043C7.89048 19.2278 7.88828 18.812 7.88828 18.4573L7.57381 18.513C7.37332 18.5507 7.12038 18.5666 6.81502 18.5621C6.5098 18.5577 6.19294 18.525 5.86487 18.464C5.53667 18.4036 5.2314 18.2634 4.94882 18.0439C4.6664 17.8243 4.4659 17.5369 4.34738 17.1821L4.21067 16.8596C4.11954 16.6449 3.97608 16.4064 3.78008 16.145C3.58409 15.8833 3.38589 15.7059 3.18539 15.6125L3.08967 15.5422C3.02589 15.4955 2.9667 15.4392 2.91197 15.3739C2.85728 15.3086 2.81634 15.2432 2.789 15.1777C2.76161 15.1122 2.7843 15.0584 2.85733 15.0163C2.93035 14.9741 3.06233 14.9536 3.25382 14.9536L3.52715 14.9955C3.70945 15.033 3.93494 15.1448 4.20392 15.3318C4.47275 15.5186 4.69374 15.7615 4.86694 16.0603C5.07668 16.4435 5.32937 16.7355 5.62573 16.9364C5.92186 17.1373 6.22042 17.2376 6.52115 17.2376C6.82187 17.2376 7.0816 17.2142 7.30043 17.1677C7.51903 17.121 7.72412 17.0507 7.91562 16.9574C7.99765 16.3311 8.22099 15.85 8.58544 15.5138C8.06598 15.4578 7.59895 15.3735 7.18412 15.2615C6.76953 15.1492 6.3411 14.9671 5.89911 14.7146C5.45689 14.4625 5.09004 14.1494 4.79846 13.7758C4.50684 13.4021 4.26751 12.9114 4.0808 12.3043C3.894 11.6969 3.80058 10.9962 3.80058 10.2021C3.80058 9.07138 4.16068 8.10919 4.88073 7.31498C4.54343 6.4649 4.57527 5.51194 4.97636 4.4562C5.24069 4.37201 5.63268 4.43519 6.15214 4.64533C6.6717 4.85556 7.0521 5.03566 7.29373 5.18498C7.53536 5.33425 7.72896 5.46075 7.87482 5.56334C8.72263 5.32051 9.59755 5.19907 10.4998 5.19907C11.4021 5.19907 12.2772 5.32051 13.125 5.56334L13.6445 5.22714C13.9998 5.00282 14.4193 4.79725 14.9021 4.61038C15.3852 4.4236 15.7546 4.37216 16.0099 4.45634C16.4199 5.51214 16.4564 6.46505 16.119 7.31513C16.839 8.10934 17.1993 9.07177 17.1993 10.2022C17.1993 10.9963 17.1055 11.6992 16.919 12.3113C16.7323 12.9234 16.4909 13.4136 16.1947 13.7828C15.8983 14.152 15.5291 14.4627 15.0871 14.7148C14.645 14.9671 14.2164 15.1492 13.8019 15.2614C13.3871 15.3736 12.92 15.4579 12.4006 15.514C12.8744 15.9343 13.1113 16.5977 13.1113 17.5039V20.4607C13.1113 20.6287 13.1683 20.7689 13.2823 20.881C13.3963 20.9929 13.5762 21.0258 13.8223 20.9789C15.9371 20.2597 17.662 18.9633 18.9972 17.09C20.3322 15.2168 21 13.1078 21 10.7625C20.9995 8.81029 20.5299 7.00966 19.5915 5.36061Z" fill="#FFFFFF"/>
</svg>

<svg width="21" height="21" fill="none" xmlns="http://www.w3.org/2000/svg"><path d="M19.591 5.36a10.59 10.59 0 0 0-3.82-3.916C14.16.48 12.404 0 10.5 0 8.595 0 6.838.481 5.23 1.444A10.588 10.588 0 0 0 1.407 5.36C.47 7.01 0 8.81 0 10.763c0 2.345.668 4.454 2.003 6.327 1.335 1.874 3.06 3.17 5.175 3.89.246.046.428.013.546-.099a.554.554 0 0 0 .178-.42l-.007-.757c-.005-.476-.007-.892-.007-1.247l-.314.056c-.2.038-.454.054-.759.05a5.644 5.644 0 0 1-.95-.099c-.328-.06-.634-.2-.916-.42a1.778 1.778 0 0 1-.602-.862l-.136-.322a3.518 3.518 0 0 0-.43-.715c-.197-.262-.395-.44-.596-.532l-.095-.07a1.015 1.015 0 0 1-.178-.17.77.77 0 0 1-.123-.195c-.027-.066-.005-.12.068-.162.073-.042.205-.062.397-.062l.273.041c.182.038.408.15.677.337.269.187.49.43.663.728.21.384.462.675.759.876.296.201.594.302.895.302.3 0 .56-.024.78-.07.218-.047.423-.117.615-.21.082-.627.305-1.108.67-1.444a9.167 9.167 0 0 1-1.402-.252 5.509 5.509 0 0 1-1.285-.547 3.702 3.702 0 0 1-1.1-.94c-.292-.373-.531-.864-.718-1.47-.187-.608-.28-1.309-.28-2.103 0-1.13.36-2.093 1.08-2.887-.338-.85-.306-1.803.095-2.859.265-.084.657-.02 1.176.19.52.21.9.39 1.142.539.241.15.435.276.58.378A9.486 9.486 0 0 1 10.5 5.2c.902 0 1.777.122 2.625.364l.52-.336c.355-.224.774-.43 1.257-.617.483-.186.853-.238 1.108-.154.41 1.056.446 2.009.109 2.86.72.793 1.08 1.756 1.08 2.886 0 .794-.094 1.497-.28 2.11-.187.611-.428 1.102-.724 1.47-.297.37-.666.68-1.108.933-.442.252-.87.434-1.285.546a9.153 9.153 0 0 1-1.401.253c.473.42.71 1.084.71 1.99v2.957c0 .168.057.308.171.42.114.112.294.145.54.098 2.115-.72 3.84-2.016 5.175-3.889C20.332 15.217 21 13.108 21 10.762c0-1.952-.47-3.752-1.409-5.401Z" fill="#FFF"/></svg>
